_site/images/homepage/business.svg

<svg fill="none" height="80" viewBox="0 0 80 80" width="80" xmlns="http://www.w3.org/2000/svg"><rect fill="#00a0b6" height="80" rx="25" width="80"/><path d="m56.9519 26.4003c-.0022 0-.0044-.0003-.0066-.0003h-9.5625v-1.1c0-1.8196-1.4194-3.3-3.164-3.3h-8.4376c-1.7446 0-3.164 1.4804-3.164 3.3v1.1h-9.5625c-.5872 0-1.0547.5019-1.0547 1.1v24.2c0 1.8196 1.4194 3.3 3.1641 3.3h29.6718c1.7447 0 3.1641-1.4804 3.1641-3.3v-24.1768c0-.0014 0-.0029 0-.0043-.0404-.7224-.4664-1.1146-1.0481-1.1186zm-22.2253-1.1003c0-.6064.4732-1.1 1.0546-1.1h8.4376c.5814 0 1.0546.4936 1.0546 1.1v1.1h-10.5468zm20.7553 3.3-3.2753 10.2478c-.1436.45-.5457.7522-1.0003.7522h-5.9329v-1.1c0-.6076-.4721-1.1-1.0546-1.1h-8.4376c-.5825 0-1.0546.4924-1.0546 1.1v1.1h-5.9329c-.4546 0-.8567-.3022-1.0003-.7522l-3.2753-10.2478zm-12.3178 11v2.2h-6.3282v-2.2zm12.7265 12.1c0 .6064-.4732 1.1-1.0547 1.1h-29.6718c-.5815 0-1.0547-.4936-1.0547-1.1v-17.4215l1.6828 5.2651c.4312 1.3498 1.6375 2.2564 3.0015 2.2564h5.9329v1.1c0 .6076.4721 1.1 1.0546 1.1h8.4376c.5825 0 1.0546-.4924 1.0546-1.1v-1.1h5.9329c1.364 0 2.5703-.9066 3.0015-2.2564l1.6828-5.2651z" fill="#fff"/></svg>

<svg width="80" height="80" viewBox="0 0 80 80" fill="none" xmlns="http://www.w3.org/2000/svg">
<rect width="80" height="80" rx="25" fill="#00A0B6"/>
<path d="M56.9519 26.4003C56.9497 26.4003 56.9475 26.4 56.9453 26.4H47.3828V25.3C47.3828 23.4804 45.9634 22 44.2188 22H35.7812C34.0366 22 32.6172 23.4804 32.6172 25.3V26.4H23.0547C22.4675 26.4 22 26.9019 22 27.5V51.7C22 53.5196 23.4194 55 25.1641 55H54.8359C56.5806 55 58 53.5196 58 51.7V27.5232C58 27.5218 58 27.5203 58 27.5189C57.9596 26.7965 57.5336 26.4043 56.9519 26.4003ZM34.7266 25.3C34.7266 24.6936 35.1998 24.2 35.7812 24.2H44.2188C44.8002 24.2 45.2734 24.6936 45.2734 25.3V26.4H34.7266V25.3ZM55.4819 28.6L52.2066 38.8478C52.063 39.2978 51.6609 39.6 51.2063 39.6H45.2734V38.5C45.2734 37.8924 44.8013 37.4 44.2188 37.4H35.7812C35.1987 37.4 34.7266 37.8924 34.7266 38.5V39.6H28.7937C28.3391 39.6 27.937 39.2978 27.7934 38.8478L24.5181 28.6H55.4819ZM43.1641 39.6V41.8H36.8359V39.6H43.1641ZM55.8906 51.7C55.8906 52.3064 55.4174 52.8 54.8359 52.8H25.1641C24.5826 52.8 24.1094 52.3064 24.1094 51.7V34.2785L25.7922 39.5436C26.2234 40.8934 27.4297 41.8 28.7937 41.8H34.7266V42.9C34.7266 43.5076 35.1987 44 35.7812 44H44.2188C44.8013 44 45.2734 43.5076 45.2734 42.9V41.8H51.2063C52.5703 41.8 53.7766 40.8934 54.2078 39.5436L55.8906 34.2785V51.7Z" fill="white"/>
</svg>
